chains/metis/logo.svg

<svg xmlns="http://www.w3.org/2000/svg" width="1500" height="1500" fill="none"><path fill="#00D2FF" d="M1500 750c0-414.21-335.78-750-750-750S0 335.79 0 750s335.78 750 750 750 750-335.79 750-750Z"/><path fill="#000" d="M1256.15 712.56c0-1.78-32.47-22.52-49.55-33.34a119.609 119.609 0 0 1-20.43-16.17c-12.79-12.64-34.09-34.74-41-48.34-4.45-8.69-2.62-24.33.84-39.25 6-26.2 1.46-53.709-12.65-76.59l-22.22-36.18a244.397 244.397 0 0 1-24.49-52.62 152.99 152.99 0 0 0-38.91-62.55c-36.15-35.26-136.2-52.62-219.31-55.39a134.862 134.862 0 0 0-15.64-3.72c-37-6.3-76.48-16.48-111.9-9.87-52.58 9.79-105.74 26.27-145.42 66.93-8 8.21-20.5 12.08-29.12 19.86-17.09 15.42-40.1 15.42-55.28 32.54-8.89 10-13 42.61-36.3 55.06-38.54 20.65-67.06 43.4-76.4 55-7.06 8.73-12.53 18.94-19.4 27.86-7 9.15-40.21 24.64-49.86 34.33-9.65 9.69-22.59 33.27-16.78 61.13.54 2.54 1 4.64 1.33 6.34 3.8 14.16 14.13 39.83 11.74 51.6-2.78 13.93-38.62 117.78 41.46 145.46 16.67 5.77 23.73 17 25.55 34.1 1.41 12.76 5.2 25.85 11.85 39.94 7.29 15.37 21.64 23.73 22.81 24.75 4.83 4.26 27.31 27.72 29.16 31.14 28.41 52.51 20.43 78.75 74.81 96.59a198.256 198.256 0 0 1 40 18.34 215.912 215.912 0 0 0 49 21.72c.5.14 1.26.41 2.15.73 12.08-29.19 24.33-56.88 36.54-82.94-97.89-100.38-72.15-212.84-62.76-243a5.607 5.607 0 0 1 6.609-3.803 5.618 5.618 0 0 1 2.461 1.263c20.54 18 83 82.93 75.67 200.14 21.6-43.14 42.61-81.08 61.8-113.47-70.64-119.72-18-224.66-1.41-252.33a5.647 5.647 0 0 1 4.693-2.745 5.651 5.651 0 0 1 4.837 2.485c14.4 21.38 53.53 91.47 29.3 192.45 17.57-26.86 31.83-46.74 41.15-59.22 25.24-166.92 151.3-221.69 184.43-233.3a5.616 5.616 0 0 1 5.324.854 5.615 5.615 0 0 1 2.146 4.946c-3.06 34.52-24.34 167.44-170.56 235.7-17.57 23.15-34.5 47.52-50.69 72.52C807.64 777.87 886 757.3 951.1 773.1a5.682 5.682 0 0 1 4.354 6.333 5.675 5.675 0 0 1-1.054 2.577c-18.72 24.78-93.17 108.36-233.4 89.21-23.7 39.95-45.42 80.43-64.7 119.15 60.55-45.82 149.04-63.37 217.7-40.3a5.748 5.748 0 0 1 3.79 3.979 5.741 5.741 0 0 1-1.29 5.341c-21.32 23-103.42 98.27-238.4 68.38-12.65 26.74-31.52 70.71-40.73 92.44-3.17 7.47-6.09 15-8.68 22.71-6 17.7-14 39.78-23.61 61.87a25.006 25.006 0 0 0 5.998 28.22 25.082 25.082 0 0 0 8.722 5.24 550.223 550.223 0 0 0 331.2 12.27 24.925 24.925 0 0 0 9.733-5.32 24.866 24.866 0 0 0 6.447-9.03 851.84 851.84 0 0 1 4.51-10.49s47.08-109.36 54-157c2.73-18.73 8.17-32.78 13.78-43 3.68-6.68 9-12.31 15.45-16.37a44.848 44.848 0 0 1 21.46-6.82c35.88-1.9 112.28-6.91 140.07-15.72 36.94-11.73 20.92-79 18.94-86.26-1.98-7.26 17.77-24.11 21.84-33.95 4.07-9.84-10-13.21-15.73-24s14.25-18.57 17.1-28.37c2.85-9.8-6.5-20.58-10.29-27.83-3.79-7.25-5.24-16.32-5.24-16.32s27-19.79 41.38-32.28c14.38-12.49 11.69-22.78 11.66-25.21"/></svg>

<svg width="1500" height="1500" viewBox="0 0 1500 1500" fill="none" xmlns="http://www.w3.org/2000/svg">
<path d="M1500 750C1500 335.79 1164.22 0 750 0C335.78 0 0 335.79 0 750C0 1164.21 335.78 1500 750 1500C1164.22 1500 1500 1164.21 1500 750Z" fill="#00D2FF"/>
<path d="M1256.15 712.56C1256.15 710.78 1223.68 690.04 1206.6 679.22C1199.22 674.589 1192.37 669.167 1186.17 663.05C1173.38 650.41 1152.08 628.31 1145.17 614.71C1140.72 606.02 1142.55 590.38 1146.01 575.46C1152.01 549.26 1147.47 521.751 1133.36 498.87L1111.14 462.69C1100.92 446.185 1092.69 428.521 1086.65 410.07C1078.97 386.363 1065.61 364.89 1047.74 347.52C1011.59 312.26 911.54 294.9 828.43 292.13C823.295 290.58 818.073 289.338 812.79 288.41C775.79 282.11 736.31 271.93 700.89 278.54C648.31 288.33 595.15 304.81 555.47 345.47C547.47 353.68 534.97 357.55 526.35 365.33C509.26 380.75 486.25 380.75 471.07 397.87C462.18 407.87 458.07 440.48 434.77 452.93C396.23 473.58 367.71 496.33 358.37 507.93C351.31 516.66 345.84 526.87 338.97 535.79C331.97 544.94 298.76 560.43 289.11 570.12C279.46 579.81 266.52 603.39 272.33 631.25C272.87 633.79 273.33 635.89 273.66 637.59C277.46 651.75 287.79 677.42 285.4 689.19C282.62 703.12 246.78 806.97 326.86 834.65C343.53 840.42 350.59 851.65 352.41 868.75C353.82 881.51 357.61 894.6 364.26 908.69C371.55 924.06 385.9 932.42 387.07 933.44C391.9 937.7 414.38 961.16 416.23 964.58C444.64 1017.09 436.66 1043.33 491.04 1061.17C505.011 1065.78 518.427 1071.93 531.04 1079.51C546.407 1088.76 562.868 1096.05 580.04 1101.23C580.54 1101.37 581.3 1101.64 582.19 1101.96C594.27 1072.77 606.52 1045.08 618.73 1019.02C520.84 918.64 546.58 806.18 555.97 776.02C556.248 775.126 556.745 774.316 557.417 773.663C558.088 773.011 558.912 772.536 559.814 772.284C560.716 772.031 561.666 772.008 562.579 772.217C563.492 772.426 564.338 772.861 565.04 773.48C585.58 791.48 648.04 856.41 640.71 973.62C662.31 930.48 683.32 892.54 702.51 860.15C631.87 740.43 684.51 635.49 701.1 607.82C701.588 607.005 702.274 606.326 703.095 605.846C703.915 605.366 704.843 605.101 705.793 605.075C706.744 605.049 707.685 605.263 708.53 605.697C709.376 606.132 710.098 606.773 710.63 607.56C725.03 628.94 764.16 699.03 739.93 800.01C757.5 773.15 771.76 753.27 781.08 740.79C806.32 573.87 932.38 519.1 965.51 507.49C966.398 507.174 967.351 507.086 968.281 507.235C969.212 507.384 970.09 507.766 970.834 508.344C971.578 508.922 972.165 509.678 972.54 510.542C972.915 511.407 973.066 512.352 972.98 513.29C969.92 547.81 948.64 680.73 802.42 748.99C784.85 772.14 767.92 796.51 751.73 821.51C807.64 777.87 886 757.3 951.1 773.1C952.019 773.311 952.871 773.747 953.579 774.369C954.287 774.991 954.829 775.78 955.157 776.664C955.484 777.548 955.586 778.5 955.454 779.433C955.322 780.366 954.96 781.252 954.4 782.01C935.68 806.79 861.23 890.37 721 871.22C697.3 911.17 675.58 951.65 656.3 990.37C716.85 944.55 805.34 927 874 950.07C874.914 950.364 875.74 950.882 876.402 951.577C877.064 952.272 877.542 953.122 877.79 954.049C878.039 954.976 878.051 955.951 877.826 956.884C877.6 957.817 877.144 958.679 876.5 959.39C855.18 982.39 773.08 1057.66 638.1 1027.77C625.45 1054.51 606.58 1098.48 597.37 1120.21C594.2 1127.68 591.28 1135.21 588.69 1142.92C582.69 1160.62 574.69 1182.7 565.08 1204.79C563.727 1207.94 563.038 1211.34 563.053 1214.76C563.068 1218.19 563.789 1221.58 565.169 1224.72C566.55 1227.86 568.561 1230.68 571.078 1233.01C573.595 1235.33 576.564 1237.12 579.8 1238.25C686.315 1276.28 801.963 1280.57 911 1250.52C914.604 1249.5 917.932 1247.68 920.733 1245.2C923.535 1242.71 925.739 1239.63 927.18 1236.17C929.45 1230.78 931.69 1225.68 931.69 1225.68C931.69 1225.68 978.77 1116.32 985.69 1068.68C988.42 1049.95 993.86 1035.9 999.47 1025.68C1003.15 1019 1008.47 1013.37 1014.92 1009.31C1021.38 1005.25 1028.76 1002.9 1036.38 1002.49C1072.26 1000.59 1148.66 995.58 1176.45 986.77C1213.39 975.04 1197.37 907.77 1195.39 900.51C1193.41 893.25 1213.16 876.4 1217.23 866.56C1221.3 856.72 1207.23 853.35 1201.5 842.56C1195.77 831.77 1215.75 823.99 1218.6 814.19C1221.45 804.39 1212.1 793.61 1208.31 786.36C1204.52 779.11 1203.07 770.04 1203.07 770.04C1203.07 770.04 1230.07 750.25 1244.45 737.76C1258.83 725.27 1256.14 714.98 1256.11 712.55" fill="black"/>
</svg>
